packages/foundations/assets/icons/functional/images/security/fingerprint_14.svg

<svg width="14" height="14" viewBox="0 0 14 14" fill="none" xmlns="http://www.w3.org/2000/svg">
<g clip-path="url(#clip0_187_234)">
<path fill-rule="evenodd" clip-rule="evenodd" d="M8.47692 12.1584C6.96761 11.2715 5.98468 9.97276 5.63546 8.40315C5.55028 8.02065 5.77813 7.6377 6.14481 7.54874C6.51234 7.46023 6.87775 7.69774 6.96292 8.08069C7.2917 9.55912 8.33127 10.4398 9.14555 10.9179C9.47347 11.1109 9.58974 11.5446 9.40533 11.8871C9.28012 12.1192 9.04887 12.25 8.8108 12.25C8.6971 12.25 8.58253 12.2206 8.47692 12.1584ZM4.33951 11.8426C4.10741 11.8426 3.88084 11.7185 3.75351 11.4952C3.23095 10.5794 3.06273 9.80152 3.05549 9.76861C2.9388 9.32206 2.87279 8.80389 2.87279 8.30352C2.87279 7.24274 3.32081 6.24289 4.10187 5.5606C4.71642 5.02376 5.49577 4.72799 6.29642 4.72799C7.78827 4.72799 9.09827 5.72473 9.55652 7.20849C9.67193 7.58255 9.47517 7.98373 9.11701 8.10427C8.758 8.2248 8.37471 8.01976 8.25929 7.6457C7.98332 6.75171 7.1946 6.15126 6.29642 6.15126C5.81518 6.15126 5.34629 6.32917 4.9762 6.65297C4.50561 7.06394 4.2356 7.66572 4.2356 8.30397C4.2356 8.68025 4.285 9.06942 4.37827 9.42925C4.38679 9.46527 4.52009 10.0595 4.92382 10.7667C5.11632 11.1043 5.0107 11.541 4.68746 11.7421C4.57801 11.8101 4.45833 11.8426 4.33951 11.8426ZM11.4491 10.1622C11.0829 10.0724 10.8554 9.68944 10.9419 9.30649C11.3465 7.50782 10.7681 5.63132 9.43259 4.40998C9.14938 4.15067 9.12127 3.70101 9.36913 3.40568C9.61742 3.10946 10.0476 3.0801 10.3308 3.33896C12.0466 4.90857 12.7894 7.31968 12.2689 9.63206C12.1953 9.95986 11.915 10.1809 11.6063 10.1809C11.5543 10.1814 11.5019 10.1751 11.4491 10.1622ZM1.78936 4.84585C1.51169 4.58032 1.4921 4.13066 1.74592 3.84022C2.77228 2.66691 4.17044 1.9357 5.68316 1.78047C6.40034 1.70842 7.11624 1.76402 7.81084 1.9486C8.1754 2.046 8.39557 2.4334 8.30273 2.81413C8.20989 3.19485 7.8398 3.42347 7.47397 3.32784C6.93311 3.18373 6.37521 3.13837 5.81603 3.19708C4.63891 3.31761 3.55079 3.88648 2.75184 4.80004C2.61769 4.95393 2.43329 5.03177 2.24845 5.03177C2.08492 5.03177 1.9201 4.97039 1.78936 4.84585Z" fill="#1A1C1F"/>
</g>
<defs>
<clipPath id="clip0_187_234">
<rect width="14" height="14" fill="white"/>
</clipPath>
</defs>
</svg>

<svg xmlns="http://www.w3.org/2000/svg" width="14" height="14" fill="none"><g clip-path="url(#a)"><path fill="#1A1C1F" fill-rule="evenodd" d="M8.477 12.158c-1.51-.886-2.492-2.185-2.842-3.755-.085-.382.143-.765.51-.854a.68.68 0 0 1 .818.532c.329 1.478 1.368 2.359 2.183 2.837a.73.73 0 0 1 .26.97.68.68 0 0 1-.595.362.66.66 0 0 1-.334-.092m-4.137-.315a.68.68 0 0 1-.586-.348c-.523-.916-.691-1.693-.699-1.726a6 6 0 0 1-.182-1.465c0-1.061.448-2.061 1.229-2.743a3.34 3.34 0 0 1 2.194-.833c1.492 0 2.802.997 3.26 2.48a.72.72 0 0 1-.439.896.675.675 0 0 1-.858-.458C7.983 6.752 7.195 6.15 6.296 6.15c-.48 0-.95.178-1.32.502a2.19 2.19 0 0 0-.74 1.651c0 .376.049.765.142 1.125.009.036.142.63.546 1.338a.73.73 0 0 1-.237.975c-.109.068-.229.1-.347.1m7.11-1.68c-.367-.09-.595-.474-.508-.857.405-1.798-.174-3.675-1.51-4.896a.734.734 0 0 1-.063-1.004.66.66 0 0 1 .962-.067c1.716 1.57 2.458 3.98 1.938 6.293a.69.69 0 0 1-.663.549.6.6 0 0 1-.157-.019M1.79 4.845a.735.735 0 0 1-.044-1.006 6.05 6.05 0 0 1 3.937-2.06 6 6 0 0 1 2.128.169c.364.097.585.484.492.865a.68.68 0 0 1-.829.514 4.6 4.6 0 0 0-1.658-.13A4.7 4.7 0 0 0 2.752 4.8a.664.664 0 0 1-.962.046" clip-rule="evenodd"/></g><defs><clipPath id="a"><path fill="#fff" d="M0 0h14v14H0z"/></clipPath></defs></svg>
